papirus/32x32/apps/kodi.svg

<svg height="32" viewBox="0 0 32.000001 32.000001" width="32" xmlns="http://www.w3.org/2000/svg"><path d="m13.547542-10.253684h18.159753c.65029 0 1.173808.5589344 1.173808 1.2532161v18.0009358c0 .6942817-.523518 1.2532161-1.173808 1.2532161h-18.159753c-.650289 0-1.173808-.5589344-1.173808-1.2532161v-18.0009358c0-.6942817.523519-1.2532161 1.173808-1.2532161z" fill="#fff" transform="matrix(.70710678 .70710678 -.70710678 .70710678 0 0)"/><path d="m15.980469 2c-.308974.0110648-.622714.1402921-.867188.3847656l-4.113281 4.1132813v12.8808591l11.439453-11.4394529-5.609375-5.609375c-.229912-.2299119-.535506-.3402272-.845703-.3300781a1.3737 1.3737 0 0 0 -.003906 0zm-7.980469 7.4980469l-5.6152344 5.6152341c-.2433673.243368-.3707359.555676-.3828125.863281a1.3737 1.3737 0 0 0 0 .015626c-.0080011.307413.1002224.609987.328125.83789l5.609375 5.609375.0605469-.060547zm16.560547.5625001l-6.271485 6.271484 5.939454 5.941407 5.386718-5.386719c.243368-.243368.370736-.555676.382813-.863281a1.3737 1.3737 0 0 0 0-.015626c.008001-.307413-.100222-.609987-.328125-.83789zm-8.392578 8.392578l-5.167969 5.167969v1.878906l4.169922 4.169922c.22943.22943.534221.339708.84375.330078a1.3737 1.3737 0 0 0  .001953 0c .310197-.010149.625628-.1393.871094-.384766l5.220703-5.220703z" fill="#31afe1"/><path d="m15.984375 2c-.310197.0101491-.625628.1393-.871094.3847656l-12.7285154 12.7285154c-.3908076.390808-.4807188.954328-.2714844 1.400391.064001-.143341.1522237-.28113.2714844-.400391l12.7285154-12.7285154c.490931-.4909313 1.256974-.5145112 1.716797-.0546875l12.839844 12.8398439c.093779.093779.163192.202126.216797.316406.199456-.446715.131323-.968286-.216797-1.316406l-12.839844-12.8398439c-.229912-.2299119-.535506-.3402272-.845703-.3300781z" fill="#fff" opacity=".2"/><path d="m29.886719 15.486328c-.064001.143341-.152224.28113-.271485.400391l-12.728515 12.728515c-.490931.490931-1.256973.514512-1.716797.054688l-12.8398439-12.839844c-.0937794-.093779-.1631916-.202126-.2167969-.316406-.199456.446715-.131323.968286.2167969 1.316406l12.8398439 12.839844c.459824.459824 1.225865.436244 1.716797-.054688l12.728515-12.728515c.390808-.390808.480719-.954328.271485-1.400391z" opacity=".3"/></svg>

<?xml version="1.0" encoding="UTF-8" standalone="no"?>
<!-- Created with Inkscape (http://www.inkscape.org/) -->

<svg
   xmlns:dc="http://purl.org/dc/elements/1.1/"
   xmlns:cc="http://creativecommons.org/ns#"
   xmlns:rdf="http://www.w3.org/1999/02/22-rdf-syntax-ns#"
   xmlns:svg="http://www.w3.org/2000/svg"
   xmlns="http://www.w3.org/2000/svg"
   xmlns:sodipodi="http://sodipodi.sourceforge.net/DTD/sodipodi-0.dtd"
   xmlns:inkscape="http://www.inkscape.org/namespaces/inkscape"
   id="svg4163"
   height="32"
   width="32"
   version="1.1"
   viewBox="0 0 32.000001 32.000001"
   inkscape:version="0.91 r13725"
   sodipodi:docname="kodi.svg">
  <defs
     id="defs10" />
  <sodipodi:namedview
     pagecolor="#5b5b5b"
     bordercolor="#666666"
     borderopacity="1"
     objecttolerance="10"
     gridtolerance="10"
     guidetolerance="10"
     inkscape:pageopacity="0"
     inkscape:pageshadow="2"
     inkscape:window-width="1600"
     inkscape:window-height="849"
     id="namedview8"
     showgrid="false"
     inkscape:zoom="12.239653"
     inkscape:cx="16"
     inkscape:cy="15.164821"
     inkscape:window-x="0"
     inkscape:window-y="0"
     inkscape:window-maximized="1"
     inkscape:current-layer="svg4163" />
  <metadata
     id="metadata4168">
    <rdf:RDF>
      <cc:Work
         rdf:about="">
        <dc:format>image/svg+xml</dc:format>
        <dc:type
           rdf:resource="http://purl.org/dc/dcmitype/StillImage" />
        <dc:title></dc:title>
      </cc:Work>
    </rdf:RDF>
  </metadata>
  <path
     transform="matrix(0.70710678,0.70710678,-0.70710678,0.70710678,0,0)"
     style="opacity:1;fill:#ffffff;fill-opacity:1;stroke:none;stroke-width:4;stroke-linecap:round;stroke-linejoin:round;stroke-miterlimit:4;stroke-dasharray:none;stroke-opacity:1"
     d="m 13.547542,-10.253684 18.159753,0 c 0.65029,0 1.173808,0.5589344 1.173808,1.2532161 l 0,18.0009358 c 0,0.6942817 -0.523518,1.2532161 -1.173808,1.2532161 l -18.159753,0 c -0.650289,0 -1.173808,-0.5589344 -1.173808,-1.2532161 l 0,-18.0009358 c 0,-0.6942817 0.523519,-1.2532161 1.173808,-1.2532161 z"
     id="rect4141" />
  <path
     style="fill:#31afe1"
     d="M 15.980469 2 C 15.671495 2.0110648 15.357755 2.1402921 15.113281 2.3847656 L 11 6.4980469 L 11 19.378906 L 22.439453 7.9394531 L 16.830078 2.3300781 C 16.600166 2.1001662 16.294572 1.9898509 15.984375 2 A 1.3737 1.3737 0 0 0 15.980469 2 z M 8 9.4980469 L 2.3847656 15.113281 C 2.1413983 15.356649 2.0140297 15.668957 2.0019531 15.976562 A 1.3737 1.3737 0 0 0 2.0019531 15.992188 C 1.993952 16.299601 2.1021755 16.602175 2.3300781 16.830078 L 7.9394531 22.439453 L 8 22.378906 L 8 9.4980469 z M 24.560547 10.060547 L 18.289062 16.332031 L 24.228516 22.273438 L 29.615234 16.886719 C 29.858602 16.643351 29.98597 16.331043 29.998047 16.023438 A 1.3737 1.3737 0 0 0 29.998047 16.007812 C 30.006048 15.700399 29.897825 15.397825 29.669922 15.169922 L 24.560547 10.060547 z M 16.167969 18.453125 L 11 23.621094 L 11 25.5 L 15.169922 29.669922 C 15.399352 29.899352 15.704143 30.00963 16.013672 30 A 1.3737 1.3737 0 0 0 16.015625 30 C 16.325822 29.989851 16.641253 29.8607 16.886719 29.615234 L 22.107422 24.394531 L 16.167969 18.453125 z "
     id="rect4809" />
  <path
     style="opacity:0.2;fill:#ffffff;fill-opacity:1;stroke:none;stroke-width:4;stroke-linecap:round;stroke-linejoin:round;stroke-miterlimit:4;stroke-dasharray:none;stroke-opacity:1"
     d="M 15.984375 2 C 15.674178 2.0101491 15.358747 2.1393 15.113281 2.3847656 L 2.3847656 15.113281 C 1.993958 15.504089 1.9040468 16.067609 2.1132812 16.513672 C 2.1772822 16.370331 2.2655049 16.232542 2.3847656 16.113281 L 15.113281 3.3847656 C 15.604212 2.8938343 16.370255 2.8702544 16.830078 3.3300781 L 29.669922 16.169922 C 29.763701 16.263701 29.833114 16.372048 29.886719 16.486328 C 30.086175 16.039613 30.018042 15.518042 29.669922 15.169922 L 16.830078 2.3300781 C 16.600166 2.1001662 16.294572 1.9898509 15.984375 2 z "
     id="path4147" />
  <path
     style="opacity:0.3;fill:#000000;fill-opacity:1;stroke:none;stroke-width:4;stroke-linecap:round;stroke-linejoin:round;stroke-miterlimit:4;stroke-dasharray:none;stroke-opacity:1"
     d="M 29.886719 15.486328 C 29.822718 15.629669 29.734495 15.767458 29.615234 15.886719 L 16.886719 28.615234 C 16.395788 29.106165 15.629746 29.129746 15.169922 28.669922 L 2.3300781 15.830078 C 2.2362987 15.736299 2.1668865 15.627952 2.1132812 15.513672 C 1.9138252 15.960387 1.9819582 16.481958 2.3300781 16.830078 L 15.169922 29.669922 C 15.629746 30.129746 16.395787 30.106166 16.886719 29.615234 L 29.615234 16.886719 C 30.006042 16.495911 30.095953 15.932391 29.886719 15.486328 z "
     id="path4152" />
</svg>
